X: 155
T: Sailor On The Rock
R: reel
M: 4/4
L: 1/8
K: Dmaj
defd BAFB|AD (3FED FAAB|defd BAFB|1 ABdf eddB:|2 ABdf edde||
faag fddf|gfga bgeg|faag fedB|ABdf edde|
faag fddf|gfga bgeg|~f3e ~d3B|ABdf eddA||

